Numix/16/status/indicator-keyboard-Ka-4.svg

<?xml version="1.0" encoding="UTF-8" standalone="no"?>
<svg
   xmlns:dc="http://purl.org/dc/elements/1.1/"
   xmlns:cc="http://creativecommons.org/ns#"
   xmlns:rdf="http://www.w3.org/1999/02/22-rdf-syntax-ns#"
   xmlns:svg="http://www.w3.org/2000/svg"
   xmlns="http://www.w3.org/2000/svg"
   xmlns:sodipodi="http://sodipodi.sourceforge.net/DTD/sodipodi-0.dtd"
   xmlns:inkscape="http://www.inkscape.org/namespaces/inkscape"
   viewBox="0 0 16 16"
   id="svg2"
   version="1.1"
   inkscape:version="0.91 r13725"
   sodipodi:docname="indicator-keyboard-Ka-4.svg">
  <metadata
     id="metadata14">
    <rdf:RDF>
      <cc:Work
         rdf:about="">
        <dc:format>image/svg+xml</dc:format>
        <dc:type
           rdf:resource="http://purl.org/dc/dcmitype/StillImage" />
      </cc:Work>
    </rdf:RDF>
  </metadata>
  <defs
     id="defs12" />
  <sodipodi:namedview
     pagecolor="#ffffff"
     bordercolor="#666666"
     borderopacity="1"
     objecttolerance="10"
     gridtolerance="10"
     guidetolerance="10"
     inkscape:pageopacity="0"
     inkscape:pageshadow="2"
     inkscape:window-width="640"
     inkscape:window-height="480"
     id="namedview10"
     showgrid="false"
     inkscape:zoom="14.75"
     inkscape:cx="8"
     inkscape:cy="8"
     inkscape:window-x="65"
     inkscape:window-y="24"
     inkscape:window-maximized="0"
     inkscape:current-layer="svg2" />
  <path
     style="fill:#ececec;fill-opacity:1"
     d="M 1.5996094 0 C 0.71320937 2.9605947e-16 0 0.71320937 0 1.5996094 L 0 14.400391 C 2.9605947e-16 15.286791 0.71320937 16 1.5996094 16 L 14.400391 16 C 15.286791 16 16 15.286791 16 14.400391 L 16 1.5996094 C 16 0.71320937 15.286791 0 14.400391 0 L 1.5996094 0 z M 1.9101562 4.859375 L 2.5214844 4.859375 L 2.5214844 7.765625 C 2.7494844 7.561625 3.0013437 7.3284531 3.2773438 7.0644531 C 3.5593437 6.7944531 3.8354688 6.5239062 4.1054688 6.2539062 C 4.3814687 5.9839063 4.6389063 5.7264687 4.8789062 5.4804688 C 5.1189063 5.2344688 5.3110781 5.027375 5.4550781 4.859375 L 6.1933594 4.859375 C 6.0193594 5.045375 5.8085 5.2673906 5.5625 5.5253906 C 5.3165 5.7773906 5.05725 6.0385937 4.78125 6.3085938 C 4.50525 6.5785938 4.229125 6.845375 3.953125 7.109375 C 3.683125 7.367375 3.4386562 7.5949688 3.2226562 7.7929688 C 3.3966562 7.9009687 3.58325 8.0352656 3.78125 8.1972656 C 3.98525 8.3532656 4.1885781 8.5287031 4.3925781 8.7207031 C 4.6025781 8.9067031 4.8078594 9.1044531 5.0058594 9.3144531 C 5.2098594 9.5184531 5.3982656 9.7255469 5.5722656 9.9355469 C 5.7522656 10.145547 5.9108281 10.348875 6.0488281 10.546875 C 6.1928281 10.744875 6.3103906 10.927703 6.4003906 11.095703 L 5.7167969 11.095703 C 5.5127969 10.783703 5.2814375 10.475922 5.0234375 10.169922 C 4.7714375 9.8639217 4.5046563 9.5746875 4.2226562 9.3046875 C 3.9406563 9.0346875 3.6514219 8.7884062 3.3574219 8.5664062 C 3.0694219 8.3444063 2.7914844 8.1597656 2.5214844 8.0097656 L 2.5214844 11.095703 L 1.9101562 11.095703 L 1.9101562 4.859375 z M 8.6835938 6.3359375 C 8.9895937 6.3359375 9.2470313 6.3807031 9.4570312 6.4707031 C 9.6730312 6.5547031 9.8465156 6.6740781 9.9785156 6.8300781 C 10.110516 6.9800781 10.207578 7.1591406 10.267578 7.3691406 C 10.327578 7.5791406 10.357422 7.8086875 10.357422 8.0546875 L 10.357422 10.988281 C 10.297422 11.006281 10.209703 11.026781 10.095703 11.050781 C 9.981703 11.068781 9.8492188 11.089281 9.6992188 11.113281 C 9.5492187 11.137281 9.3813125 11.155969 9.1953125 11.167969 C 9.0153125 11.185969 8.8306719 11.195313 8.6386719 11.195312 C 8.3926719 11.195312 8.163125 11.167281 7.953125 11.113281 C 7.749125 11.059281 7.5700625 10.975328 7.4140625 10.861328 C 7.2640625 10.741328 7.1446875 10.592109 7.0546875 10.412109 C 6.9706875 10.226109 6.9277344 10.000328 6.9277344 9.7363281 C 6.9277344 9.4843281 6.9762656 9.2698437 7.0722656 9.0898438 C 7.1682656 8.9098438 7.3025625 8.7624375 7.4765625 8.6484375 C 7.6505625 8.5284375 7.8576563 8.4407187 8.0976562 8.3867188 C 8.3376562 8.3327188 8.5988594 8.3066406 8.8808594 8.3066406 C 8.9648594 8.3066406 9.0525781 8.3122187 9.1425781 8.3242188 C 9.2385781 8.3302187 9.3281094 8.341375 9.4121094 8.359375 C 9.5021094 8.371375 9.5767187 8.3862969 9.6367188 8.4042969 C 9.7027187 8.4162969 9.7474844 8.4294063 9.7714844 8.4414062 L 9.7714844 8.1523438 C 9.7714844 7.9903437 9.7603281 7.8355469 9.7363281 7.6855469 C 9.7123281 7.5295469 9.6582188 7.3914844 9.5742188 7.2714844 C 9.4962187 7.1454844 9.3824219 7.0466094 9.2324219 6.9746094 C 9.0884219 6.8966094 8.89625 6.8574219 8.65625 6.8574219 C 8.31425 6.8574219 8.058625 6.8816875 7.890625 6.9296875 C 7.722625 6.9776875 7.5994844 7.016875 7.5214844 7.046875 L 7.4414062 6.5332031 C 7.5434062 6.4852031 7.6982031 6.4404375 7.9082031 6.3984375 C 8.1242031 6.3564375 8.3835938 6.3359375 8.6835938 6.3359375 z M 8.8632812 8.8105469 C 8.7192812 8.8105469 8.5681094 8.8217031 8.4121094 8.8457031 C 8.2561094 8.8637031 8.1124688 8.9084687 7.9804688 8.9804688 C 7.8484687 9.0464688 7.74025 9.1397656 7.65625 9.2597656 C 7.57225 9.3797656 7.53125 9.5383281 7.53125 9.7363281 C 7.53125 9.9103281 7.5573281 10.057734 7.6113281 10.177734 C 7.6713281 10.297734 7.7534688 10.394797 7.8554688 10.466797 C 7.9634687 10.538797 8.0884219 10.592906 8.2324219 10.628906 C 8.3824219 10.658906 8.5503281 10.673828 8.7363281 10.673828 C 8.9643281 10.673828 9.1620781 10.666297 9.3300781 10.654297 C 9.5040781 10.636297 9.6514844 10.615797 9.7714844 10.591797 L 9.7714844 8.953125 C 9.7054844 8.923125 9.6010313 8.8932813 9.4570312 8.8632812 C 9.3130312 8.8272812 9.1152813 8.8105469 8.8632812 8.8105469 z M 13.189453 8.8417969 L 13.587891 8.8417969 L 13.587891 11.486328 L 14.089844 11.486328 L 14.089844 11.796875 L 13.587891 11.796875 L 13.587891 12.896484 L 13.212891 12.896484 L 13.212891 11.796875 L 11.376953 11.796875 L 11.376953 11.5625 C 11.447153 11.3753 11.543169 11.163687 11.667969 10.929688 C 11.796669 10.695688 11.941663 10.456637 12.101562 10.210938 C 12.261463 9.9652374 12.435847 9.7261874 12.623047 9.4921875 C 12.810247 9.2542875 12.998353 9.0367969 13.189453 8.8417969 z M 13.212891 9.2695312 C 13.076391 9.4099312 12.937275 9.5706063 12.796875 9.7539062 C 12.656475 9.9372063 12.523231 10.129225 12.394531 10.328125 C 12.269731 10.523125 12.152169 10.719069 12.042969 10.917969 C 11.933769 11.116869 11.841678 11.306928 11.767578 11.486328 L 13.212891 11.486328 L 13.212891 9.2695312 z "
     id="path4" />
</svg>

<svg xmlns="http://www.w3.org/2000/svg" viewBox="0 0 16 16">
 <path d="m 1.6 0 c -0.886 0 -1.6 0.713 -1.6 1.6 l 0 12.801 c 0 0.886 0.713 1.6 1.6 1.6 l 12.801 0 c 0.886 0 1.6 -0.713 1.6 -1.6 l 0 -12.801 c 0 -0.886 -0.713 -1.6 -1.6 -1.6 l -12.801 0 z m 0.311 4.859 l 0.611 0 l 0 2.906 c 0.228 -0.204 0.48 -0.437 0.756 -0.701 c 0.282 -0.27 0.558 -0.541 0.828 -0.811 c 0.276 -0.27 0.533 -0.527 0.773 -0.773 c 0.24 -0.246 0.432 -0.453 0.576 -0.621 l 0.738 0 c -0.174 0.186 -0.385 0.408 -0.631 0.666 c -0.246 0.252 -0.505 0.513 -0.781 0.783 c -0.276 0.27 -0.552 0.537 -0.828 0.801 c -0.27 0.258 -0.514 0.486 -0.73 0.684 c 0.174 0.108 0.361 0.242 0.559 0.404 c 0.204 0.156 0.407 0.331 0.611 0.523 c 0.21 0.186 0.415 0.384 0.613 0.594 c 0.204 0.204 0.392 0.411 0.566 0.621 c 0.18 0.21 0.339 0.413 0.477 0.611 c 0.144 0.198 0.262 0.381 0.352 0.549 l -0.684 0 c -0.204 -0.312 -0.435 -0.62 -0.693 -0.926 c -0.252 -0.306 -0.519 -0.595 -0.801 -0.865 c -0.282 -0.27 -0.571 -0.516 -0.865 -0.738 c -0.288 -0.222 -0.566 -0.407 -0.836 -0.557 l 0 3.086 l -0.611 0 l 0 -6.236 z m 6.773 1.477 c 0.306 0 0.563 0.045 0.773 0.135 c 0.216 0.084 0.389 0.203 0.521 0.359 c 0.132 0.15 0.229 0.329 0.289 0.539 c 0.06 0.21 0.09 0.44 0.09 0.686 l 0 2.934 c -0.06 0.018 -0.148 0.038 -0.262 0.063 c -0.114 0.018 -0.246 0.038 -0.396 0.063 c -0.15 0.024 -0.318 0.043 -0.504 0.055 c -0.18 0.018 -0.365 0.027 -0.557 0.027 c -0.246 0 -0.476 -0.028 -0.686 -0.082 c -0.204 -0.054 -0.383 -0.138 -0.539 -0.252 c -0.15 -0.12 -0.269 -0.269 -0.359 -0.449 c -0.084 -0.186 -0.127 -0.412 -0.127 -0.676 c 0 -0.252 0.049 -0.466 0.145 -0.646 c 0.096 -0.18 0.23 -0.327 0.404 -0.441 c 0.174 -0.12 0.381 -0.208 0.621 -0.262 c 0.24 -0.054 0.501 -0.08 0.783 -0.08 c 0.084 0 0.172 0.006 0.262 0.018 c 0.096 0.006 0.186 0.017 0.27 0.035 c 0.09 0.012 0.165 0.027 0.225 0.045 c 0.066 0.012 0.111 0.025 0.135 0.037 l 0 -0.289 c 0 -0.162 -0.011 -0.317 -0.035 -0.467 c -0.024 -0.156 -0.078 -0.294 -0.162 -0.414 c -0.078 -0.126 -0.192 -0.225 -0.342 -0.297 c -0.144 -0.078 -0.336 -0.117 -0.576 -0.117 c -0.342 0 -0.598 0.024 -0.766 0.072 c -0.168 0.048 -0.291 0.087 -0.369 0.117 l -0.08 -0.514 c 0.102 -0.048 0.257 -0.093 0.467 -0.135 c 0.216 -0.042 0.475 -0.063 0.775 -0.063 z m 0.18 2.475 c -0.144 0 -0.295 0.011 -0.451 0.035 c -0.156 0.018 -0.3 0.063 -0.432 0.135 c -0.132 0.066 -0.24 0.159 -0.324 0.279 c -0.084 0.12 -0.125 0.279 -0.125 0.477 c 0 0.174 0.026 0.321 0.08 0.441 c 0.06 0.12 0.142 0.217 0.244 0.289 c 0.108 0.072 0.233 0.126 0.377 0.162 c 0.15 0.03 0.318 0.045 0.504 0.045 c 0.228 0 0.426 -0.008 0.594 -0.02 c 0.174 -0.018 0.321 -0.038 0.441 -0.063 l 0 -1.639 c -0.066 -0.03 -0.17 -0.06 -0.314 -0.09 c -0.144 -0.036 -0.342 -0.053 -0.594 -0.053 z m 4.326 0.031 l 0.398 0 l 0 2.645 l 0.502 0 l 0 0.311 l -0.502 0 l 0 1.1 l -0.375 0 l 0 -1.1 l -1.836 0 l 0 -0.234 c 0.07 -0.187 0.166 -0.399 0.291 -0.633 c 0.129 -0.234 0.274 -0.473 0.434 -0.719 c 0.16 -0.246 0.334 -0.485 0.521 -0.719 c 0.187 -0.238 0.375 -0.455 0.566 -0.65 z m 0.023 0.428 c -0.137 0.14 -0.276 0.301 -0.416 0.484 c -0.14 0.183 -0.274 0.375 -0.402 0.574 c -0.125 0.195 -0.242 0.391 -0.352 0.59 c -0.109 0.199 -0.201 0.389 -0.275 0.568 l 1.445 0 l 0 -2.217 z" style="fill:#ececec;fill-opacity:1"/>
</svg>
